img/Icon awesome-facebook-f.svg

<svg height="36" viewBox="0 0 19.281 36" width="19.281" xmlns="http://www.w3.org/2000/svg"><path d="m19.627 20.25 1-6.515h-6.252v-4.228c0-1.782.873-3.52 3.673-3.52h2.842v-5.547a34.658 34.658 0 0 0 -5.044-.44c-5.146 0-8.514 3.12-8.514 8.769v4.965h-5.723v6.516h5.723v15.75h7.043v-15.75z" fill="#fff" transform="translate(-1.609)"/></svg>

<svg xmlns="http://www.w3.org/2000/svg" width="19.281" height="36" viewBox="0 0 19.281 36"><defs><style>.a{fill:#fff;}</style></defs><path class="a" d="M19.627,20.25l1-6.515H14.375V9.507c0-1.782.873-3.52,3.673-3.52h2.842V.44A34.658,34.658,0,0,0,15.846,0C10.7,0,7.332,3.12,7.332,8.769v4.965H1.609V20.25H7.332V36h7.043V20.25Z" transform="translate(-1.609)"/></svg>
